X: 37221
T: Sister Jean
R: jig
M: 6/8
K: Ddorian
"Dm"D2E {FG}F2G|"Dm"ABA (G2F)|"C"E2(C C2)G|"C"{EF}E3 (D2C)|
"Dm"D2E {FG}F2G|"Dm"ABA "Am"A2G|"Dm"A2(d "C"d2c)|1 "Dm"d3 D3:|2 "Dm"d3 A3||
[K:DMix] "Am"A2B c2d|"Am"efe e2c|"Am"A2(B c2G)|"C"E3 C3|
"Am"A2(B c2d)|"Am"efe e2d|"D"f2(d d2)^c|"Am"d3 A3|
"Am"A2B c2d|"Am"efe e2c|"Am"A2(B c2G)|"C"E3 C2c|
"D"A2A F2A|"D"A2A F2A|"D"A2(d "C"d2c)|"D"d3 D3||

